components/Common/Svg/svgs/opensource.svg

<svg width="40" height="40" viewBox="0 0 40 40" fill="none" xmlns="http://www.w3.org/2000/svg">
<path d="M10.1998 36.3C9.79977 36.3 9.49977 36.2 9.19977 36C6.89977 34.3 4.99977 32 3.69977 29.4C2.09977 26.1 1.49977 22.5 1.99977 18.9C2.49977 15.3 3.99977 12 6.29977 9.2C8.69977 6.5 11.7998 4.5 15.1998 3.6C16.7998 3.2 18.3998 3 19.9998 3C21.5998 3 23.1998 3.2 24.7998 3.6C28.2998 4.5 31.3998 6.5 33.6998 9.2C36.0998 11.9 37.5998 15.3 37.9998 18.9C38.4998 22.5 37.8998 26.1 36.2998 29.4C34.9998 32 33.0998 34.3 30.7998 36C30.3998 36.3 29.8998 36.4 29.3998 36.3C28.8998 36.2 28.3998 35.8 28.0998 35.4L22.6998 25.9C22.4998 25.5 22.3998 24.9 22.4998 24.3C22.5998 23.8 22.7998 23.3 23.0998 22.7C23.2998 22.2 23.4998 21.7 23.4998 21.2C23.4998 19.3 21.9998 17.8 20.0998 17.8C18.1998 17.8 16.6998 19.3 16.6998 21.2C16.6998 21.7 16.7998 22.2 17.0998 22.7C17.3998 23.3 17.5998 23.8 17.6998 24.3C17.7998 24.9 17.6998 25.4 17.4998 25.9L12.0998 35.4C11.7998 35.9 11.3998 36.2 10.7998 36.3C10.4998 36.3 10.2998 36.3 10.1998 36.3ZM19.8998 5C18.4998 5 17.0998 5.2 15.6998 5.6C12.5998 6.4 9.89977 8.2 7.79977 10.6C5.69977 13 4.39977 16 3.89977 19.2C3.49977 22.4 3.99977 25.6 5.39977 28.5C6.49977 30.8 8.09977 32.7 10.0998 34.3L15.4998 24.9C15.4998 24.9 15.4998 24.8 15.4998 24.7C15.4998 24.4 15.2998 24.1 15.0998 23.7C14.6998 23 14.4998 22.1 14.4998 21.3C14.4998 18.3 16.8998 15.9 19.8998 15.9C22.8998 15.9 25.2998 18.3 25.2998 21.3C25.2998 22.1 25.0998 23 24.6998 23.7C24.4998 24.1 24.3998 24.5 24.2998 24.7C24.2998 24.9 24.2998 24.9 24.2998 24.9L29.6998 34.3C31.6998 32.8 33.2998 30.8 34.3998 28.5C35.7998 25.6 36.2998 22.4 35.8998 19.2C35.4998 16 34.0998 13 31.9998 10.6C29.8998 8.2 27.0998 6.5 24.0998 5.6C22.8998 5.2 21.3998 5 19.8998 5C19.9998 5 19.9998 5 19.8998 5Z" fill="#161616"/>
</svg>

<svg width="40" height="40" viewBox="0 0 40 40" fill="none" xmlns="http://www.w3.org/2000/svg"><path d="M10.2 36.3c-.4 0-.7-.1-1-.3-2.3-1.7-4.2-4-5.5-6.6-1.6-3.3-2.2-6.9-1.7-10.5.5-3.6 2-6.9 4.3-9.7 2.4-2.7 5.5-4.7 8.9-5.6 1.6-.4 3.2-.6 4.8-.6 1.6 0 3.2.2 4.8.6 3.5.9 6.6 2.9 8.9 5.6 2.4 2.7 3.9 6.1 4.3 9.7.5 3.6-.1 7.2-1.7 10.5-1.3 2.6-3.2 4.9-5.5 6.6-.4.3-.9.4-1.4.3-.5-.1-1-.5-1.3-.9l-5.4-9.5c-.2-.4-.3-1-.2-1.6.1-.5.3-1 .6-1.6.2-.5.4-1 .4-1.5 0-1.9-1.5-3.4-3.4-3.4s-3.4 1.5-3.4 3.4c0 .5.1 1 .4 1.5.3.6.5 1.1.6 1.6.1.6 0 1.1-.2 1.6l-5.4 9.5c-.3.5-.7.8-1.3.9h-.6ZM19.9 5c-1.4 0-2.8.2-4.2.6-3.1.8-5.8 2.6-7.9 5C5.7 13 4.4 16 3.9 19.2c-.4 3.2.1 6.4 1.5 9.3 1.1 2.3 2.7 4.2 4.7 5.8l5.4-9.4v-.2c0-.3-.2-.6-.4-1-.4-.7-.6-1.6-.6-2.4 0-3 2.4-5.4 5.4-5.4 3 0 5.4 2.4 5.4 5.4 0 .8-.2 1.7-.6 2.4-.2.4-.3.8-.4 1v.2l5.4 9.4c2-1.5 3.6-3.5 4.7-5.8 1.4-2.9 1.9-6.1 1.5-9.3-.4-3.2-1.8-6.2-3.9-8.6-2.1-2.4-4.9-4.1-7.9-5-1.2-.4-2.7-.6-4.2-.6.1 0 .1 0 0 0Z" fill="#161616"/></svg>
